public/icons/github_lg_icon.svg

<svg width="161" height="160" viewBox="0 0 161 160" fill="none" xmlns="http://www.w3.org/2000/svg">
<rect x="0.5" width="160" height="160" rx="8" fill="#F7F7FC"/>
<path d="M96.349 120.189C96.349 114.058 96.349 104.49 96.349 104.49C96.5011 102.556 96.2398 100.611 95.5823 98.7855C94.9249 96.96 93.8863 95.2953 92.5358 93.9022C105.273 92.4824 118.66 87.655 118.66 65.506C118.659 59.8422 116.481 54.3957 112.575 50.2937C114.425 45.3386 114.294 39.8615 112.21 35.0003C112.21 35.0003 107.423 33.5805 96.349 41.0041C87.0513 38.4842 77.2504 38.4842 67.9527 41.0041C56.8782 33.5805 52.0914 35.0003 52.0914 35.0003C50.0079 39.8615 49.8771 45.3386 51.7263 50.2937C47.7919 54.4261 45.6111 59.9219 45.6414 65.6276C45.6414 87.6144 59.0282 92.4418 71.7659 94.0239C70.4313 95.403 69.402 97.0477 68.745 98.8509C68.088 100.654 67.8181 102.575 67.9527 104.49V120.189" fill="#14142B"/>
<path d="M96.349 120.189C96.349 114.058 96.349 104.49 96.349 104.49C96.5011 102.556 96.2398 100.611 95.5823 98.7855C94.9249 96.96 93.8863 95.2953 92.5358 93.9022C105.273 92.4824 118.66 87.655 118.66 65.506C118.659 59.8422 116.481 54.3957 112.575 50.2937C114.425 45.3386 114.294 39.8615 112.21 35.0003C112.21 35.0003 107.423 33.5805 96.349 41.0041C87.0513 38.4842 77.2504 38.4842 67.9527 41.0041C56.8782 33.5805 52.0914 35.0003 52.0914 35.0003C50.0079 39.8615 49.8771 45.3386 51.7263 50.2937C47.7919 54.4261 45.6111 59.9219 45.6414 65.6276C45.6414 87.6144 59.0282 92.4418 71.7659 94.0239C70.4313 95.403 69.402 97.0477 68.745 98.8509C68.088 100.654 67.8181 102.575 67.9527 104.49V120.189" stroke="#14142B"/>
<path d="M67.9529 109.435C47.6698 115.519 47.6698 97.8779 39.5566 95.8496" stroke="#14142B" stroke-width="4" stroke-linecap="round" stroke-linejoin="round"/>
</svg>

<svg width="161" height="160" fill="none" xmlns="http://www.w3.org/2000/svg"><rect x=".5" width="160" height="160" rx="8" fill="#F7F7FC"/><path d="M96.349 120.189V104.49a13.672 13.672 0 0 0-3.813-10.588c12.737-1.42 26.124-6.247 26.124-28.396a22.064 22.064 0 0 0-6.085-15.212A20.561 20.561 0 0 0 112.21 35s-4.787-1.42-15.861 6.004a54.277 54.277 0 0 0-28.396 0C56.878 33.581 52.09 35 52.09 35a20.567 20.567 0 0 0-.365 15.294 22.068 22.068 0 0 0-6.085 15.334c0 21.986 13.387 26.814 26.125 28.396a13.671 13.671 0 0 0-3.813 10.466v15.699" fill="#14142B"/><path d="M96.349 120.189V104.49a13.672 13.672 0 0 0-3.813-10.588c12.737-1.42 26.124-6.247 26.124-28.396a22.064 22.064 0 0 0-6.085-15.212A20.561 20.561 0 0 0 112.21 35s-4.787-1.42-15.861 6.004a54.277 54.277 0 0 0-28.396 0C56.878 33.581 52.09 35 52.09 35a20.567 20.567 0 0 0-.365 15.294 22.068 22.068 0 0 0-6.085 15.334c0 21.986 13.387 26.814 26.125 28.396a13.671 13.671 0 0 0-3.813 10.466v15.699" stroke="#14142B"/><path d="M67.953 109.435C47.67 115.519 47.67 97.878 39.557 95.85" stroke="#14142B" stroke-width="4" stroke-linecap="round" stroke-linejoin="round"/></svg>
